X:475
T: Con Cronin's
S: "Johnny O'Leary of Sliabh Luachra" (#10)
Z: B.Black
L: 1/8
M: 2/4
R: polka
K: G
DD/E/ GG|AA/B/ AG|Ec B/c/d/B/|G>A B/A/G/E/|
DD/E/ GG|AA/B/ AG|Ec B/c/d/B/|1 G2 GG/F/ :|2\
G2 GA||
B>c dB|cB AG|B>c dB|cB A2|
B>c dB|cB AG|Ec B/c/d/B/|1 G2 GG/A/ :|2\
G2 G/A/G/E/ ||
